icons/tech-stack/go.svg

<svg viewBox="0 0 32 32" fill="none" xmlns="http://www.w3.org/2000/svg">
    <g id="SVGRepo_bgCarrier" stroke-width="0"></g>
    <g id="SVGRepo_tracerCarrier" stroke-linecap="round" stroke-linejoin="round"></g>
    <g id="SVGRepo_iconCarrier">
    <path
        fill-rule="evenodd"
        clip-rule="evenodd"
        d="M18.1177 14.0442C17.7408 14.1497 17.3586 14.2566 16.9162 14.3768C16.7001 14.438 16.6509 14.4519 16.4498 14.2074C16.2086 13.9194 16.0317 13.7331 15.6939 13.5636C14.6807 13.0384 13.6996 13.1909 12.7829 13.8178C11.6893 14.5632 11.1264 15.6644 11.1425 17.0367C11.1585 18.3921 12.0431 19.5103 13.3137 19.6966C14.4073 19.8491 15.324 19.4425 16.0477 18.5785C16.1924 18.3922 16.3212 18.1887 16.482 17.9516H13.378C13.0402 17.9516 12.9598 17.7314 13.0724 17.4433C13.2815 16.9181 13.6675 16.0372 13.8926 15.5967C13.9409 15.495 14.0535 15.3256 14.2947 15.3256H19.4702C19.7027 14.5496 20.0799 13.8164 20.5831 13.1226C21.7572 11.4961 23.1725 10.649 25.0863 10.2933C26.7268 9.9883 28.2707 10.1577 29.6699 11.1573C30.9405 12.0722 31.7285 13.3089 31.9376 14.9354C32.211 17.2225 31.5838 19.0862 30.0881 20.6787C29.0266 21.8138 27.7239 22.5254 26.2282 22.8473C25.9429 22.9029 25.6576 22.9293 25.3768 22.9553C25.2303 22.9689 25.085 22.9823 24.9416 22.9998C23.478 22.9659 22.1432 22.5254 21.0173 21.5089C20.2256 20.7879 19.6803 19.9019 19.4092 18.8705C19.2211 19.2707 18.9962 19.6539 18.7336 20.0185C17.5756 21.628 16.0638 22.6276 14.15 22.8987C12.5738 23.1189 11.1103 22.797 9.82366 21.7805C8.63353 20.8317 7.95805 19.578 7.78114 18.0194C7.57206 16.1727 8.08671 14.5124 9.14818 13.0554C10.2901 11.4798 11.8019 10.4802 13.6514 10.1244C15.1632 9.8364 16.6106 10.0228 17.9134 10.9546C18.7657 11.5475 19.3769 12.3608 19.779 13.3434C19.8755 13.4959 19.8111 13.5806 19.6181 13.6314C19.0545 13.7822 18.5903 13.9121 18.1177 14.0442ZM28.7581 15.974C28.7613 16.0309 28.7646 16.0909 28.7693 16.1552C28.6889 17.6122 27.9973 18.6965 26.7268 19.3911C25.8744 19.8485 24.9898 19.8994 24.1053 19.4928C22.9473 18.9506 22.3361 17.6122 22.6256 16.2907C22.9795 14.6982 23.9444 13.6986 25.4401 13.3428C26.968 12.9701 28.4316 13.9188 28.7211 15.5961C28.7438 15.7161 28.7505 15.836 28.7581 15.974Z"
        fill="#00ACD7"
    ></path>
    <path
        d="M2.44461 13.8517C2.41244 13.9025 2.42852 13.9364 2.49285 13.9364L7.2826 13.9534C7.33085 13.9534 7.41126 13.9025 7.44343 13.8517L7.71684 13.4112C7.749 13.3604 7.73292 13.3096 7.66859 13.3096H2.95926C2.89493 13.3096 2.81451 13.3435 2.78235 13.3943L2.44461 13.8517Z"
        fill="#00ACD7"
    ></path>
    <path
        d="M0.0160829 15.4103C-0.0160829 15.4611 7.45058e-09 15.495 0.0643316 15.495L6.63928 15.4781C6.70361 15.4781 6.76794 15.4442 6.78402 15.3764L6.91269 14.9698C6.92877 14.919 6.8966 14.8682 6.83227 14.8682H0.530735C0.466404 14.8682 0.385989 14.902 0.353823 14.9529L0.0160829 15.4103Z"
        fill="#00ACD7"
    ></path>
    <path
        d="M3.90813 16.9521C3.87596 17.0029 3.89204 17.0537 3.95638 17.0537L6.43019 17.0707C6.47843 17.0707 6.54277 17.0199 6.54277 16.9521L6.57493 16.5455C6.57493 16.4777 6.54277 16.4269 6.47843 16.4269H4.29412C4.22978 16.4269 4.16545 16.4777 4.13329 16.5285L3.90813 16.9521Z"
        fill="#00ACD7"
    ></path>
    </g>
</svg>

<svg viewBox="0 0 32 32" fill="none" xmlns="http://www.w3.org/2000/svg"><g fill="#00ACD7"><path fill-rule="evenodd" clip-rule="evenodd" d="M18.118 14.044c-.377.106-.76.213-1.202.333-.216.061-.265.075-.466-.17-.241-.288-.418-.474-.756-.643-1.013-.526-1.994-.373-2.911.254-1.094.745-1.657 1.846-1.64 3.219.015 1.355.9 2.473 2.17 2.66 1.094.152 2.011-.255 2.735-1.119.144-.186.273-.39.434-.626h-3.104c-.338 0-.418-.22-.306-.509.21-.525.596-1.406.82-1.846.049-.102.162-.271.403-.271h5.175c.233-.776.61-1.51 1.113-2.203 1.174-1.627 2.59-2.474 4.503-2.83 1.64-.305 3.185-.135 4.584.864 1.27.915 2.058 2.152 2.268 3.778.273 2.287-.354 4.151-1.85 5.744-1.061 1.135-2.364 1.846-3.86 2.168-.285.056-.57.082-.851.108-.147.014-.292.027-.435.045-1.464-.034-2.799-.475-3.925-1.491a5.364 5.364 0 01-1.608-2.639c-.188.4-.413.784-.675 1.148-1.158 1.61-2.67 2.61-4.584 2.88-1.576.22-3.04-.101-4.326-1.117-1.19-.95-1.866-2.203-2.043-3.762-.209-1.846.306-3.507 1.367-4.964 1.142-1.575 2.654-2.575 4.503-2.93 1.512-.289 2.96-.102 4.262.83.853.592 1.464 1.406 1.866 2.388.096.153.032.238-.16.288-.564.151-1.029.281-1.501.413zm10.64 1.93l.011.181c-.08 1.457-.772 2.541-2.042 3.236-.853.458-1.737.508-2.622.102-1.158-.542-1.769-1.88-1.48-3.202.355-1.593 1.32-2.592 2.815-2.948 1.528-.373 2.992.576 3.281 2.253.023.12.03.24.037.378z"/><path d="M2.445 13.852c-.033.05-.016.084.048.084l4.79.017c.048 0 .128-.05.16-.101l.274-.44c.032-.052.016-.102-.048-.102h-4.71c-.064 0-.144.034-.177.084l-.337.458zM.016 15.41c-.032.051-.016.085.048.085l6.575-.017c.065 0 .129-.034.145-.102l.129-.406c.016-.051-.016-.102-.08-.102H.53c-.065 0-.145.034-.177.085l-.338.457zM3.908 16.952c-.032.05-.016.102.048.102l2.474.017c.048 0 .113-.051.113-.119l.032-.407c0-.067-.032-.118-.097-.118H4.294c-.064 0-.129.05-.16.102l-.226.423z"/></g></svg>
